X:1
T:Svensk Gardessång
T:Svensk Gardessång
T:Hugo Bedinger
C:Hugo Bedinger
%%score [ 1 2 3 4 ]
L:1/8
Q:1/4=82
M:4/4
K:G
V:1 treble nm="Soprano"
V:2 treble nm="Alto"
V:3 treble-8 nm="Tenor"
V:4 bass nm="Bass"
V:1
"^Alla marcia"!f! d | B2 (3(AB) A G2 D3/2 D/ | (E>F) G3/2 A/ B2 z!mf! D | %3
w: 1.Se|ko- nun- * gens gar- de! det|Sven- * ska, det blå \-som|
"^cresc. molto" E2 (3(FE) D (G>A) B3/2 ^c/ | ^c4 d2 z!ff! e | c2 B3/2 c/ A2 G3/2 A/ | %6
w: nal- kas _ med tätt- * slut- na|le- der, Det|kan ic- ke vi- ka, det|
 F2 E3/2 F/ D2 z e | c2 (3(Bc) B A2 (3(GA) G | (F2 (3EFE) D2 z!mf! d | B2 (3(AB) A G2 D3/2 D/ | %10
w: fram- åt vill gå, Hvart|hin- der _ til mar- ken _ slå|ne- * * * der. Ej|rä- des _ det lu- ran- de|
"^cresc." (E>F) G3/2 A/ B2 z!ff! G | !>!c2 B3/2 B/ !>!e2 d3/2 D/ | (3(!>!GDG) B3/2 A/ G2 z |] %13
w: fi- * en- des skott: Med|fälld ba- jo- nett, det be-|ta- * * lar dem blott.|
V:2
!f! D | G2 (3:2:2F2 F E2 D3/2 D/ | C2 C3/2 C/ D2 z!mf! D | %3
w: 1.Se|ko- nun- gens gar- de! det|Sven- ska, det blå \-som|
"^cresc. molto" D2 (3:2:2D2 D (D>F) G3/2 G/ | G4 F2 z!ff! F | G2 F3/2 F/ E2 D3/2 D/ | %6
w: nal- kas med tätt- * slut- na|le- der, Det|kan ic- ke vi- ka, det|
 D2 C3/2 C/ C2 z F | G2 F3/2 F/ (3(EFE) D3/2 D/ | (D2 C2) D2 z!mf! F | G2 (3:2:2F2 F G2 D3/2 D/ | %10
w: fram- åt vill gå, Hvart|hin- der til mar- * * ken slå|ne- * der. Ej|rä- des de lu- ran- de|
"^cresc." C2 C3/2 C/ D2 z!ff! D | !>!G2 G3/2 G/ !>!G2 F3/2 D/ | !>!D2 F3/2 F/ G2 z |] %13
w: fi- en- des skott: Med|fälld ba- jo- nett, det be-|ta- lar dem blott.|
V:3
!f! d | d2 (3:2:2c2 c B2 G3/2 G/ | G2 c3/2 c/ G2 z!mf! d | %3
w: 1.Se|ko- nun- gens gar- de! det|Sven- ska, det blå \-som|
"^cresc. molto" d2 (3:2:2d2 d d2 d3/2 e/ | e4 d2 z!ff! A | e2 d3/2 d/ c2 B3/2 B/ | %6
w: nal- kas med tätt- slut- na|le- der, Det|kan ic- ke vi- ka, det|
 A2 G3/2 G/ F2 z A | (3(efe) d3/2 d/ (3(cdc) B3/2 B/ | (3(ABA G2) F2 z!mf! d | %9
w: fram- åt vill gå, Hvart|hin- * * der til mar- * * ken slå|ne- * * * der. Ej|
 d2 (3:2:2c2 c B2 G3/2 G/ |"^cresc." G2 c3/2 c/ G2 z!ff! B | !>!c2 d3/2 d/ !>!A2 A3/2 c/ | %12
w: rä- des de lu- ran- de|fi- en- des skott: Med|fälld ba- jo- nett, det be-|
 !>!B2 c3/2 c/ B2 z |] %13
w: ta- lar dem blott.|
V:4
!f! D, | G,2 (3:2:2D,2 D, E,2 B,,3/2 B,,/ | C,2 E,2 G,,3/2 B,,/ D,!mf! D | %3
w: 1.Se|ko- nun- gens gar- de! det|Sven- * ska, det blå \-som|
"^cresc. molto" ^C2 (3:2:2=C2 C B,3/2 A,/ (3(G,F,) E, | A,2 A,,2 D,2 z!ff! D, | %5
w: nal- kas med tätt- slut- * * na|le- * der, Det|
 D,2 D,3/2 D,/ D,2 D,2 | D,2 D,2 D, A,, D, D, | D,2 D,3/2 D,/ D,2 D,3/2 D,/ | %8
w: kan ic- ke vi- ka,|det fram- åt vill gå, Hvart|hin- der til mar- ken slå|
 (D,4- (3D,E,A,,) D,!mf! D, | %9
w: ne- * * * der. Ej|
"_\n\n2.Som segrare, förr, på Germanias fält,\nSlöt gardet kring kungen sin skara -\nVar trofast och manligt ehvad det har gällt,\nStod tapper och lugnt i hvar fara.\nOch stranden vid Narva kan sjunga en sång,\nHur, en emot tio, det segrat en gång.\n\n\n\n3.O Lützen - hvad glans kring den frejdade graf,\nSom famnade gardet, det gula!\nAtt konungen hämnas sitt hjärtblod det gaf\nTill offer åt mördande kula.\nMed Brahe i spetsen, det segrande föll,\nMen ännu i döden det lederna höll.\n\n\n\n4.Som fäderna tänkte, så tänka vi än -\nVill kungen til vapen oss kalla,\nVi svärja det heligt, som svenskar och män\nAtt segra som de, eller falla.\nEj gardet skall svika - det håller sitt ord,\nTill domen vid yttersta mönstringens bord.\n\n\n\n5.De fanor vi följa, och svurit vår ed,\nVi aldrig åt fienden gifva.\nSå länge en man står i gardernas led,\nFörsvarade skola de blifva!\nDe snöhvita dukar med gyllene skrift,\nDe svalka vår möda, beskugga vår grift.\n" G,2 (3:2:2D,2 D, E,2 B,,3/2 B,,/ | %10
w: rä- des de lu- ran- de|
"^cresc." C,2 E,3/2 E,/ G,2!ff! =F,2 | !>!E,2 D,3/2 D,/ !>!^C,2 D,3/2 D,/ | %12
w: fi- en- des skott: Med|fälld ba- jo- nett, det be-|
 !>!G,2 D,3/2 D,/ [G,,G,]2 z |] %13
w: ta- lar dem blott.|

